X: 2
T: Wild Mountain Thyme
R: barndance
M: 4/4
L: 1/8
K: Gmaj
GE| D2 D2 E2 G2| G2 G2 B2 d2| e2 e2 d2 Bd|d2 Bd3 e2|
d2 B2 AG- G2|A2 B2 c3B| A2 G2 EG3| G2 E2 D2 E2|
G2 G2 G2 Bd|e2 e2 d2 Bd|d2 B2 d2 e2| d2 B2 AG G2|
A2 B2 c2 B2 |A2 G2 E<G G2|GE D2 E2 G2|G2 G2 G2||


Tune 10655	Setting 29537

